images/merging-workflows-2.svg

<?xml version="1.0"?>
<svg xmlns="http://www.w3.org/2000/svg" xmlns:xlink="http://www.w3.org/1999/xlink" width="713px" height="270px" viewBox="0 0 713 270" version="1.1">
    <!-- Generator: Sketch 56.3 (81716) - https://sketch.com -->
    <title>images/merging-workflows-2</title>
    <desc>Created with Sketch.</desc>
    <g id="05---Merging-Workflows-2" stroke="none" stroke-width="1" fill="none" fill-rule="evenodd">
        <g id="Line-+-brown-2" transform="translate(6.000000, 66.000000)">
            <g id="brown">
                <rect id="Rectangle-1" fill="#EFEFE7" fill-rule="evenodd" x="0" y="0" width="89" height="33" rx="16.5"/>
                <text stroke="none" font-family="Source Code Pro" font-size="12px" font-weight="700" fill="#979797" fill-opacity="1" text-anchor="middle" id="C6">
                    <tspan fill="#808080" x="44.5" y="21" fill-opacity="1">C1</tspan>
                </text>
            </g>
        </g>
        <g id="Line-+-brown-3" transform="translate(95.000000, 66.000000)">
            <path id="Line" d="M9,16 L54,16 L54,17 L9,17 L9,21 L0,16.5 L9,12 L9,16 Z" fill="#8F8981" fill-rule="nonzero"/>
            <g id="brown" transform="translate(30.000000, 0.000000)">
                <rect id="Rectangle-1" fill="#EFEFE7" fill-rule="evenodd" x="0" y="0" width="89" height="33" rx="16.5"/>
                <text stroke="none" font-family="Source Code Pro" font-size="12px" font-weight="700" fill="#979797" fill-opacity="1" text-anchor="middle" id="C6">
                    <tspan fill="#808080" x="44.5" y="21" fill-opacity="1">C2</tspan>
                </text>
            </g>
        </g>
        <path id="Line-3" d="M223,82 L268,82 L268,83 L223,83 L223,87 L214,82.5 L223,78 L223,82 Z" fill="#8F8981" fill-rule="nonzero"/>
        <g id="brown" transform="translate(244.000000, 66.000000)">
            <rect id="Rectangle-1" fill="#EFEFE7" fill-rule="evenodd" x="0" y="0" width="89" height="33" rx="16.5"/>
            <text stroke="none" font-family="Source Code Pro" font-size="12px" font-weight="700" fill="#979797" fill-opacity="1" text-anchor="middle" id="C6">
                <tspan fill="#808080" x="44.5" y="21" fill-opacity="1">C7</tspan>
            </text>
        </g>
        <g id="Line-+-brown-5" transform="translate(209.000000, 94.000000)">
            <path id="Line" d="M7.83266063,4.82805823 L59.1939201,39.3640775 L58.6359225,40.1939201 L7.27466304,5.6579008 L5.04267269,8.97727107 L0.0850787153,0.221001205 L10.064651,1.50868795 L7.83266063,4.82805823 Z" fill="#8F8981" fill-rule="nonzero"/>
            <g id="brown" transform="translate(35.000000, 23.000000)">
                <rect id="Rectangle-1" fill="#EFEFE7" fill-rule="evenodd" x="0" y="0" width="89" height="33" rx="16.5"/>
                <text stroke="none" font-family="Source Code Pro" font-size="12px" font-weight="700" fill="#979797" fill-opacity="1" text-anchor="middle" id="C6">
                    <tspan fill="#808080" x="44.5" y="21" fill-opacity="1">C3</tspan>
                </text>
            </g>
        </g>
        <g id="Line-+-brown-6" transform="translate(333.000000, 117.000000)">
            <path id="Line" d="M9,16 L54,16 L54,17 L9,17 L9,21 L0,16.5 L9,12 L9,16 Z" fill="#8F8981" fill-rule="nonzero"/>
            <g id="brown" transform="translate(30.000000, 0.000000)">
                <rect id="Rectangle-1" fill="#EFEFE7" fill-rule="evenodd" x="0" y="0" width="89" height="33" rx="16.5"/>
                <text stroke="none" font-family="Source Code Pro" font-size="12px" font-weight="700" fill="#979797" fill-opacity="1" text-anchor="middle" id="C6">
                    <tspan fill="#808080" x="44.5" y="21" fill-opacity="1">C4</tspan>
                </text>
            </g>
        </g>
        <path id="Line" d="M577,82 L622,82 L622,83 L577,83 L577,87 L568,82.5 L577,78 L577,82 Z" fill="#8F8981" fill-rule="nonzero"/>
        <path id="Line-5" d="M460.119497,184.784168 C476.782756,182.361522 495.149271,179.140837 513.10097,175.145123 C538.761451,169.433579 559.625479,162.976806 573.487413,155.809556 C586.746331,148.954093 597.467773,137.471186 605.914696,122.649913 C610.931507,113.847238 614.837944,104.411861 617.76385,94.9761275 C618.787905,91.6736622 619.616097,88.6075764 620.264849,85.856883 C620.491707,84.8950082 620.679885,84.0415596 620.83144,83.3064107 C620.92208,82.8667421 620.980221,82.565095 621.007923,82.4113414 L621.096582,81.9192645 L622.080736,82.0965818 L621.992077,82.5886586 C621.962916,82.7505104 621.903196,83.0603487 621.810844,83.5083202 C621.657413,84.2525715 621.467205,85.1152271 621.238145,86.0864353 C620.584273,88.8588361 619.750103,91.9470551 618.718984,95.2723028 C615.772967,104.772891 611.839383,114.273837 606.783504,123.145063 C598.248195,138.12142 587.396761,149.743551 573.946699,156.697845 C559.990009,163.914088 539.056321,170.392418 513.318235,176.121236 C495.336403,180.123656 476.943712,183.348804 460.255757,185.77487 L460.801349,189.741675 L451.272132,186.509954 L459.575039,180.825613 L460.119497,184.784168 Z" fill="#8F8981" fill-rule="nonzero"/>
        <g id="brown" transform="translate(598.000000, 66.000000)">
            <rect id="Rectangle-1" fill="#EFEFE7" fill-rule="evenodd" x="0" y="0" width="89" height="33" rx="16.5"/>
            <text stroke="none" font-family="Source Code Pro" font-size="12px" font-weight="700" fill="#979797" fill-opacity="1" text-anchor="middle" id="C6">
                <tspan fill="#808080" x="44.5" y="21" fill-opacity="1">C9</tspan>
            </text>
        </g>
        <g id="Line-+-brown-9" transform="translate(333.000000, 66.000000)">
            <path id="Line" d="M9.93518519,16 L154.064815,16 L154.064815,17 L9.93518519,17 L9.93518519,21 L0.935185185,16.5 L9.93518519,12 L9.93518519,16 Z" fill="#8F8981" fill-rule="nonzero"/>
            <path id="Line-4" d="M121.664172,49.6260762 L161.62334,15.7953194 L162.269495,16.5585252 L122.310328,50.389282 L124.894949,53.4421055 L115.118397,55.8230777 L119.079551,46.5732527 L121.664172,49.6260762 Z" fill="#8F8981" fill-rule="nonzero"/>
            <g id="brown" transform="translate(146.000000, 0.000000)">
                <rect id="Rectangle-1" fill="#EFEFE7" fill-rule="evenodd" x="0" y="0" width="89" height="33" rx="16.5"/>
                <text stroke="none" font-family="Source Code Pro" font-size="12px" font-weight="700" fill="#979797" fill-opacity="1" text-anchor="middle" id="C6">
                    <tspan fill="#808080" x="44.5" y="21" fill-opacity="1">C8</tspan>
                </text>
            </g>
        </g>
        <g id="Line-+-brown-8" transform="translate(194.000000, 99.000000)">
            <path id="Line" d="M2.84615918,8.33005755 C10.6171168,29.1929194 19.0462258,47.3740677 26.6689035,56.4388736 C28.6262346,58.7665105 31.3337528,61.2988892 34.7083199,64.0018003 C38.5129603,67.0491852 43.0993832,70.261845 48.2992072,73.5772568 C53.8602248,77.122966 59.8202853,80.597688 65.7805632,83.8555841 C67.8667939,84.9959206 69.8038994,86.0276258 71.5420924,86.9325318 C72.1502375,87.2491331 72.6900017,87.5272316 73.1551632,87.7645577 C73.4338878,87.9067635 73.625574,88.0036618 73.7240007,88.0529836 L74.1710171,88.2769842 L73.7230158,89.1710171 L73.2759993,88.9470164 C73.1754448,88.8966284 72.9816047,88.7986413 72.7006946,88.6553205 C72.2331314,88.416769 71.6909349,88.1374173 71.0803198,87.8195301 C69.3363407,86.9116119 67.3933116,85.8767518 65.3009357,84.7330563 C59.3223379,81.4651465 53.3435226,77.9794904 47.7615895,74.4204455 C42.5337132,71.0871475 37.9189949,67.8546677 34.0831655,64.7823014 C30.6615423,62.0417 27.9084742,59.4667179 25.9035414,57.0824735 C18.1782741,47.8956692 9.7186976,29.6478502 1.90478736,8.66765425 L-1.86649704,10.0201201 L-0.668785489,0.0293499614 L6.60520365,6.98198126 L2.84615918,8.33005755 Z" fill="#8F8981" fill-rule="nonzero"/>
            <g id="brown" transform="translate(50.000000, 71.000000)">
                <rect id="Rectangle-1" fill="#EFEFE7" fill-rule="evenodd" x="0" y="0" width="89" height="33" rx="16.5"/>
                <text stroke="none" font-family="Source Code Pro" font-size="12px" font-weight="700" fill="#979797" fill-opacity="1" text-anchor="middle" id="C6">
                    <tspan fill="#808080" x="44.5" y="21" fill-opacity="1">C5</tspan>
                </text>
            </g>
        </g>
        <path id="Line" d="M342,186 L387,186 L387,187 L342,187 L342,191 L333,186.5 L342,182 L342,186 Z" fill="#8F8981" fill-rule="nonzero"/>
        <g id="brown" transform="translate(363.000000, 170.000000)">
            <rect id="Rectangle-1" fill="#EFEFE7" fill-rule="evenodd" x="0" y="0" width="89" height="33" rx="16.5"/>
            <text stroke="none" font-family="Source Code Pro" font-size="12px" font-weight="700" fill="#979797" fill-opacity="1" text-anchor="middle" id="C6">
                <tspan fill="#808080" x="44.5" y="21" fill-opacity="1">C6</tspan>
            </text>
        </g>
        <g id="Line-2-+-ref" transform="translate(600.000000, 9.000000)">
            <path id="Line-2" d="M42,48 L42,5 L43,5 L43,48 L47,48 L42.5,57 L38,48 L42,48 Z" fill="#8F8981" fill-rule="nonzero"/>
            <g id="ref">
                <rect id="Rectangle-2" fill="#F44D27" fill-rule="evenodd" x="0" y="0" width="106" height="33"/>
                <text stroke="none" font-family="Source Code Pro" font-size="12px" font-weight="700" fill="#979797" fill-opacity="1" text-anchor="middle" id="master">
                    <tspan fill="#f0f0f0" x="53" y="20" fill-opacity="1">master</tspan>
                </text>
            </g>
        </g>
        <g id="Line-2-+-ref-2" transform="translate(452.000000, 117.000000)">
            <path id="Line-2" d="M9,16 L69,16 L69,17 L9,17 L9,21 L0,16.5 L9,12 L9,16 Z" fill="#8F8981" fill-rule="nonzero"/>
            <g id="ref" transform="translate(26.000000, 0.000000)">
                <rect id="Rectangle-2" fill="#F44D27" fill-rule="evenodd" x="0" y="0" width="106" height="33"/>
                <text stroke="none" font-family="Source Code Pro" font-size="12px" font-weight="700" fill="#979797" fill-opacity="1" text-anchor="middle" id="master">
                    <tspan fill="#f0f0f0" x="53" y="20" fill-opacity="1">ruby_client</tspan>
                </text>
            </g>
        </g>
        <g id="Line-2-+-ref-3" transform="translate(365.000000, 203.000000)">
            <path id="Line-2" d="M43,9 L43,40 L42,40 L42,9 L38,9 L42.5,0 L47,9 L43,9 Z" fill="#8F8981" fill-rule="nonzero"/>
            <g id="ref" transform="translate(0.000000, 23.000000)">
                <rect id="Rectangle-2" fill="#F44D27" fill-rule="evenodd" x="0" y="0" width="106" height="33"/>
                <text stroke="none" font-family="Source Code Pro" font-size="12px" font-weight="700" fill="#979797" fill-opacity="1" text-anchor="middle" id="master">
                    <tspan fill="#f0f0f0" x="53" y="20" fill-opacity="1">php_client</tspan>
                </text>
            </g>
        </g>
    </g>
</svg>

<?xml version="1.0" encoding="UTF-8"?>
<svg id="svg10843" version="1.1" viewBox="0 0 689 258" xmlns="http://www.w3.org/2000/svg" xmlns:cc="http://creativecommons.org/ns#" xmlns:dc="http://purl.org/dc/elements/1.1/" xmlns:rdf="http://www.w3.org/1999/02/22-rdf-syntax-ns#">
 <metadata id="metadata10849">
  <rdf:RDF>
   <cc:Work rdf:about="">
    <dc:format>image/svg+xml</dc:format>
    <dc:type rdf:resource="http://purl.org/dc/dcmitype/StillImage"/>
    <dc:title>images/merging-workflows-2</dc:title>
   </cc:Work>
  </rdf:RDF>
 </metadata>
 <!-- Generator: Sketch 56.3 (81716) - https://sketch.com -->
 <title id="title10718">images/merging-workflows-2</title>
 <desc id="desc10720">Created with Sketch.</desc>
 <g id="g11072" transform="translate(-2,-5)">
  <g id="Line-+-brown-2" transform="translate(6,66)" style="fill-rule:evenodd;fill:none">
   <g id="brown">
    <rect id="Rectangle-1" width="89" height="33" rx="16.5" ry="16.5" style="fill-rule:evenodd;fill:#efefe7"/>
    <text id="C6" font-size="12px" font-weight="700" style="fill:#979797;font-family:'Source Code Pro';font-size:12px;font-weight:700;text-anchor:middle"><tspan id="tspan10723" x="44.5" y="21" style="fill:gray">C1</tspan></text>
   </g>
  </g>
  <g id="Line-+-brown-3" transform="translate(95,66)" style="fill-rule:evenodd;fill:none">
   <path id="Line" d="m9 16h45v1h-45v4l-9-4.5 9-4.5z" style="fill-rule:nonzero;fill:#8f8981"/>
   <g id="g10735" transform="translate(30)">
    <rect id="rect10729" width="89" height="33" rx="16.5" ry="16.5" style="fill-rule:evenodd;fill:#efefe7"/>
    <text id="text10733" font-size="12px" font-weight="700" style="fill:#979797;font-family:'Source Code Pro';font-size:12px;font-weight:700;text-anchor:middle"><tspan id="tspan10731" x="44.5" y="21" style="fill:gray">C2</tspan></text>
   </g>
  </g>
  <g id="g10998">
   <path id="Line-3" d="m223 82h45v1h-45v4l-9-4.5 9-4.5z" style="fill:#8f8981"/>
   <g id="g10745" transform="translate(244,66)" style="fill-rule:evenodd;fill:none">
    <rect id="rect10739" width="89" height="33" rx="16.5" ry="16.5" style="fill-rule:evenodd;fill:#efefe7"/>
    <text id="text10743" font-size="12px" font-weight="700" style="fill:#979797;font-family:'Source Code Pro';font-size:12px;font-weight:700;text-anchor:middle"><tspan id="tspan10741" x="44.5" y="21" style="fill:gray">C7</tspan></text>
   </g>
  </g>
  <g id="Line-+-brown-5" transform="translate(209,94)" style="fill-rule:evenodd;fill:none">
   <path id="path10747" d="m7.8327 4.8281 51.361 34.536-.558.82984-51.361-34.536-2.232 3.3194-4.9576-8.7563 9.9796 1.2877z" style="fill-rule:nonzero;fill:#8f8981"/>
   <g id="g10755" transform="translate(35,23)">
    <rect id="rect10749" width="89" height="33" rx="16.5" ry="16.5" style="fill-rule:evenodd;fill:#efefe7"/>
    <text id="text10753" font-size="12px" font-weight="700" style="fill:#979797;font-family:'Source Code Pro';font-size:12px;font-weight:700;text-anchor:middle"><tspan id="tspan10751" x="44.5" y="21" style="fill:gray">C3</tspan></text>
   </g>
  </g>
  <g id="Line-+-brown-6" transform="translate(333,117)" style="fill-rule:evenodd;fill:none">
   <path id="path10758" d="m9 16h45v1h-45v4l-9-4.5 9-4.5z" style="fill-rule:nonzero;fill:#8f8981"/>
   <g id="g10766" transform="translate(30)">
    <rect id="rect10760" width="89" height="33" rx="16.5" ry="16.5" style="fill-rule:evenodd;fill:#efefe7"/>
    <text id="text10764" font-size="12px" font-weight="700" style="fill:#979797;font-family:'Source Code Pro';font-size:12px;font-weight:700;text-anchor:middle"><tspan id="tspan10762" x="44.5" y="21" style="fill:gray">C4</tspan></text>
   </g>
  </g>
  <path id="Line-5" transform="translate(.6)" d="m460.12 184.78c16.663-2.4226 35.03-5.6433 52.981-9.639 25.66-5.7115 46.525-12.168 60.386-19.336 13.259-6.8555 23.98-18.338 32.427-33.16 5.0168-8.8027 8.9232-18.238 11.849-27.674 1.0241-3.3025 1.8522-6.3686 2.501-9.1192.22686-.96188.41504-1.8153.56659-2.5505.0906-.43967.14878-.74132.17648-.89507l.0887-.49208.98416.17732-.0887.49208c-.0292.16185-.0889.47169-.18124.91966-.15343.74425-.34363 1.6069-.57269 2.5781-.65388 2.7724-1.488 5.8606-2.5192 9.1859-2.946 9.5006-6.8796 19.002-11.935 27.873-8.5353 14.976-19.387 26.598-32.837 33.553-13.957 7.2162-34.89 13.695-60.628 19.423-17.982 4.0024-36.375 7.2276-53.062 9.6536l.54559 3.9668-9.5292-3.2317 8.3029-5.6843z" style="fill:#8f8981"/>
  <g id="g10973">
   <path id="path10769" d="m577 82h45v1h-45v4l-9-4.5 9-4.5z" style="fill:#8f8981"/>
   <g id="g10778" transform="translate(598,66)" style="fill-rule:evenodd;fill:none">
    <rect id="rect10772" width="89" height="33" rx="16.5" ry="16.5" style="fill-rule:evenodd;fill:#efefe7"/>
    <text id="text10776" font-size="12px" font-weight="700" style="fill:#979797;font-family:'Source Code Pro';font-size:12px;font-weight:700;text-anchor:middle"><tspan id="tspan10774" x="44.5" y="21" style="fill:gray">C9</tspan></text>
   </g>
  </g>
  <g id="Line-+-brown-9" transform="translate(333,66)" style="fill-rule:evenodd;fill:none">
   <path id="path10780" d="m9.9352 16h144.13v1h-144.13v4l-9-4.5 9-4.5z" style="fill-rule:nonzero;fill:#8f8981"/>
   <path id="Line-4" d="m121.66 49.626 39.959-33.831.64615.76321-39.959 33.831 2.5846 3.0528-9.7766 2.381 3.9612-9.2498z" style="fill-rule:nonzero;fill:#8f8981"/>
   <g id="g10789" transform="translate(146)">
    <rect id="rect10783" width="89" height="33" rx="16.5" ry="16.5" style="fill-rule:evenodd;fill:#efefe7"/>
    <text id="text10787" font-size="12px" font-weight="700" style="fill:#979797;font-family:'Source Code Pro';font-size:12px;font-weight:700;text-anchor:middle"><tspan id="tspan10785" x="44.5" y="21" style="fill:gray">C8</tspan></text>
   </g>
  </g>
  <g id="Line-+-brown-8" transform="translate(194,99)" style="fill-rule:evenodd;fill:none">
   <path id="path10792" d="m2.8462 8.3301c7.771 20.863 16.2 39.044 23.823 48.109 1.9573 2.3276 4.6648 4.86 8.0394 7.5629 3.8046 3.0474 8.3911 6.26 13.591 9.5755 5.561 3.5457 11.521 7.0204 17.481 10.278 2.0862 1.1403 4.0233 2.172 5.7615 3.0769.60815.3166 1.1479.5947 1.6131.83203.27872.1422.47041.2391.56884.28843l.44702.224-.448.89403-.44702-.224c-.10055-.050388-.29439-.14838-.5753-.2917-.46756-.23855-1.0098-.5179-1.6204-.83579-1.744-.90792-3.687-1.9428-5.7794-3.0865-5.9786-3.2679-11.957-6.7536-17.539-10.313-5.2279-3.3333-9.8426-6.5658-13.678-9.6381-3.4216-2.7406-6.1747-5.3156-8.1796-7.6998-7.7253-9.1868-16.185-27.435-23.999-48.415l-3.7713 1.3525 1.1977-9.9908 7.274 6.9526z" style="fill-rule:nonzero;fill:#8f8981"/>
   <g id="g10800" transform="translate(50,71)">
    <rect id="rect10794" width="89" height="33" rx="16.5" ry="16.5" style="fill-rule:evenodd;fill:#efefe7"/>
    <text id="text10798" font-size="12px" font-weight="700" style="fill:#979797;font-family:'Source Code Pro';font-size:12px;font-weight:700;text-anchor:middle"><tspan id="tspan10796" x="44.5" y="21" style="fill:gray">C5</tspan></text>
   </g>
  </g>
  <g id="g10984">
   <path id="path10803" d="m342 186h45v1h-45v4l-9-4.5 9-4.5z" style="fill:#8f8981"/>
   <g id="g10811" transform="translate(363,170)" style="fill-rule:evenodd;fill:none">
    <rect id="rect10805" width="89" height="33" rx="16.5" ry="16.5" style="fill-rule:evenodd;fill:#efefe7"/>
    <text id="text10809" font-size="12px" font-weight="700" style="fill:#979797;font-family:'Source Code Pro';font-size:12px;font-weight:700;text-anchor:middle"><tspan id="tspan10807" x="44.5" y="21" style="fill:gray">C6</tspan></text>
   </g>
  </g>
  <g id="g10966">
   <path id="Line-2" transform="translate(599.9,9)" d="m42 48v-43h1v43h4l-4.5 9-4.5-9z" style="fill:#8f8981"/>
   <g id="g10959">
    <rect id="Rectangle-2" transform="matrix(.83962 0 0 1 597.9 9)" width="106" height="33" style="fill-rule:evenodd;fill:#f44d27"/>
    <text id="master" transform="translate(589.5 9.316)" font-size="12px" font-weight="700" style="fill-rule:evenodd;fill:#979797;font-family:'Source Code Pro';font-size:12px;font-weight:700;text-anchor:middle"><tspan id="tspan10815" x="53" y="20" style="fill:#f0f0f0">master</tspan></text>
   </g>
  </g>
  <g id="g10977">
   <path id="path10820" transform="translate(452,117)" d="m9 16h60v1h-60v4l-9-4.5 9-4.5z" style="fill:#8f8981"/>
   <rect id="rect10822" transform="matrix(.83962 0 0 1 478.8 117)" width="106" height="33" style="fill-rule:evenodd;fill:#f44d27"/>
  </g>
  <text id="text10826" transform="translate(469.9 116.87)" font-size="12px" font-weight="700" style="fill-rule:evenodd;fill:#979797;font-family:'Source Code Pro';font-size:12px;font-weight:700;text-anchor:middle"><tspan id="tspan10824" x="53" y="20" style="fill:#f0f0f0">ruby_client</tspan></text>
  <g id="g10991">
   <path id="path10831" transform="translate(365,203)" d="m43 9v31h-1v-31h-4l4.5-9 4.5 9z" style="fill:#8f8981"/>
   <g id="g10934">
    <rect id="rect10833" transform="matrix(.83962 0 0 1 363 226)" width="106" height="33" style="fill-rule:evenodd;fill:#f44d27"/>
    <text id="text10837" transform="translate(354.37 225.93)" font-size="12px" font-weight="700" style="fill-rule:evenodd;fill:#979797;font-family:'Source Code Pro';font-size:12px;font-weight:700;text-anchor:middle"><tspan id="tspan10835" x="53" y="20" style="fill:#f0f0f0">php_client</tspan></text>
   </g>
  </g>
 </g>
</svg>
